X: 33516
T: Raindrops
R: reel
M: 4/4
K: Gmajor
|DGBB GBdG|BBGA B/c/dAG|FADA AGG/F/D|EDBD EEDB|
DGBB GBdG|BBGB dgfg|eGce edB/c/d|eAAF GGGF|
DGBB GBdG|ABGA B/c/dAG|FADA AGG/F/D|EDBD EEDB|
DGBB GBdG|ABGB dgfg|eGce edB/c/d|eAAF G4|
gggB Bcec|edAG AAAG|FDAF GFDE|EDED ceee|
dzgd ~c2eB|edAG Agfg|eGce edB/c/d|BAAF gggz|
dega zgea|edAG AAAG|FAAA GFDE|EDED ceee|
dggg Bcec|edAG Agfg|eGce edB/c/d|eAAF GGGz|

